src/scalable/places/folder-docker.svg

<svg xmlns="http://www.w3.org/2000/svg" xmlns:xlink="http://www.w3.org/1999/xlink" width="64" height="64"><defs><linearGradient id="a"><stop offset="0"/><stop offset="1" stop-opacity="0"/></linearGradient><linearGradient xlink:href="#a" id="b" x1="31" x2="31" y1="1005.4" y2="1003.4" gradientTransform="matrix(.92593 0 0 1 2.37 -988.4)" gradientUnits="userSpaceOnUse"/></defs><path fill="#d0a15c" d="M13 8c-1.108 0-2 .892-2 2H9c-.99 0-2 .892-2 2v6c0 1.108 1.01 2 2 2h46c.99 0 2-.892 2-2v-6c0-1.108-1.01-2-2-2H31c0-1.108-.892-2-2-2z"/><rect width="46" height="9" x="9" y="12" opacity=".06" rx="2" ry="2"/><rect width="44" height="7" x="10" y="13" fill="#fff" rx="1" ry="1"/><rect width="56" height="39" x="4" y="17" fill="#d0a15c" rx="2" ry="2"/><rect width="50" height="2" x="7" y="15" fill="url(#b)" opacity=".1" ry="0"/><rect width="56" height="38" x="4" y="17" fill="#f4be70" rx="2" ry="2"/><rect width="50" height="5" x="7" y="56" fill="url(#d)" opacity=".1" ry="0"/><path fill="#fff" d="M6 17c-1.108 0-2 .892-2 2v1c0-1.108.892-2 2-2h52c1.108 0 2 .892 2 2v-1c0-1.108-.892-2-2-2zm7-9c-1.108 0-2 .892-2 2H9c-.99 0-2 .892-2 2v1c0-1.108 1.01-2 2-2h2c0-1.108.892-2 2-2h16c1.108 0 2 .892 2 2h24c.99 0 2 .892 2 2v-1c0-1.108-1.01-2-2-2H31c0-1.108-.892-2-2-2z" opacity=".15"/><path d="M31.1 28H28v3h3zm.9 0v3h3v-3zm8.5 2.5c-1 .8-1.5 2.1-1.2 3.3.4 1.2 1.4 2.1 2.7 2.2.4 1.2 1.5 2 2.8 2s2.4-.8 2.8-2c-.4-1.2-1.5-2-2.8-2-.6 0-1.2.2-1.7.5.231-.5.2-1.2.1-1.8-.3-1.2-1.4-2.1-2.7-2.2M42 36H18c0 6.6 5.4 10 12 10s12-3.4 12-10m-16-4h-3v3h3zm4 0h-3v3h3zm4 0h-3v3h3zm4 0h-3v3h3zm-15 6c.5 0 1 .4 1 1 0 .5-.5 1-1 1-.6 0-1-.5-1-1 0-.6.4-1 1-1" class="ColorScheme-Text" style="fill:#fff"/></svg>

<?xml version="1.0" encoding="UTF-8"?>
<svg xmlns="http://www.w3.org/2000/svg" viewBox="0 0 64 64">
 <defs>
  <linearGradient id="a">
   <stop offset="0"/>
   <stop stop-opacity="0" offset="1"/>
  </linearGradient>
  <linearGradient id="b" x1="31" x2="31" y1="1005.4" y2="1003.4" gradientTransform="matrix(.92593 0 0 1 2.37 -988.4)" gradientUnits="userSpaceOnUse" xlink:href="#a"/>
  <radialGradient id="d" cx="32" cy="1021.9" r="25" gradientTransform="matrix(-1 0 0 -.08 64 137.7)" gradientUnits="userSpaceOnUse" xlink:href="#a"/>
 </defs>
 <path d="M13 8c-1.108 0-2 .892-2 2H9c-.99 0-2 .892-2 2v6c0 1.108 1.01 2 2 2h46c.99 0 2-.892 2-2v-6c0-1.108-1.01-2-2-2H31c0-1.108-.892-2-2-2z" fill="#d0a15c"/>
 <rect x="9" y="12" width="46" height="9" rx="2" ry="2" opacity=".06"/>
 <rect x="10" y="13" width="44" height="7" rx="1" ry="1" fill="#fff"/>
 <rect x="4" y="17" width="56" height="39" rx="2" ry="2" fill="#d0a15c"/>
 <rect x="7" y="15" width="50" height="2" ry="0" fill="url(#b)" opacity=".1"/>
 <rect x="4" y="17" width="56" height="38" rx="2" ry="2" fill="#f4be70"/>
 <rect x="7" y="56" width="50" height="5" ry="0" fill="url(#d)" opacity=".1"/>
 <path d="M6 17c-1.108 0-2 .892-2 2v1c0-1.108.892-2 2-2h52c1.108 0 2 .892 2 2v-1c0-1.108-.892-2-2-2zM13 8c-1.108 0-2 .892-2 2H9c-.99 0-2 .892-2 2v1c0-1.108 1.01-2 2-2h2c0-1.108.892-2 2-2h16c1.108 0 2 .892 2 2h24c.99 0 2 .892 2 2v-1c0-1.108-1.01-2-2-2H31c0-1.108-.892-2-2-2z" fill="#fff" opacity=".15"/>
 <path style="fill:#ffffff" d="M 31.1 28 L 28 28 L 28 31 L 31 31 L 31.1 28 z M 32 28 L 32 31 L 35 31 L 35 28 L 32 28 z M 40.5 30.5 C 39.5 31.3 39 32.6 39.3 33.8 C 39.7 35 40.7 35.9 42 36 C 42.4 37.2 43.5 38 44.8 38 C 46.1 38 47.2 37.2 47.6 36 C 47.2 34.8 46.1 34 44.8 34 C 44.2 34 43.6 34.2 43.1 34.5 C 43.331478 34 43.3 33.3 43.2 32.7 C 42.9 31.5 41.8 30.6 40.5 30.5 z M 42 36 L 18 36 C 18 42.6 23.4 46 30 46 C 36.6 46 42 42.6 42 36 z M 26 32 L 23 32 L 23 35 L 26 35 L 26 32 z M 30 32 L 27 32 L 27 35 L 30 35 L 30 32 z M 34 32 L 31 32 L 31 35 L 34 35 L 34 32 z M 38 32 L 35 32 L 35 35 L 38 35 L 38 32 z M 23 38 C 23.5 38 24 38.4 24 39 C 24 39.5 23.5 40 23 40 C 22.4 40 22 39.5 22 39 C 22 38.4 22.4 38 23 38 z " class="ColorScheme-Text"/>
</svg>
